src/main/resources/static/fa/svgs/solid/indent.svg

<svg xmlns="http://www.w3.org/2000/svg" viewBox="0 0 448 512"><!--! Font Awesome Free 6.5.2 by @fontawesome - https://fontawesome.com License - https://fontawesome.com/license/free (Icons: CC BY 4.0, Fonts: SIL OFL 1.1, Code: MIT License) Copyright 2024 Fonticons, Inc. --><path d="M0 64C0 46.3 14.3 32 32 32H416c17.7 0 32 14.3 32 32s-14.3 32-32 32H32C14.3 96 0 81.7 0 64zM192 192c0-17.7 14.3-32 32-32H416c17.7 0 32 14.3 32 32s-14.3 32-32 32H224c-17.7 0-32-14.3-32-32zm32 96H416c17.7 0 32 14.3 32 32s-14.3 32-32 32H224c-17.7 0-32-14.3-32-32s14.3-32 32-32zM0 448c0-17.7 14.3-32 32-32H416c17.7 0 32 14.3 32 32s-14.3 32-32 32H32c-17.7 0-32-14.3-32-32zM127.8 268.6L25.8 347.9C15.3 356.1 0 348.6 0 335.3V176.7c0-13.3 15.3-20.8 25.8-12.6l101.9 79.3c8.2 6.4 8.2 18.9 0 25.3z"/></svg>

<svg xmlns="http://www.w3.org/2000/svg" viewBox="0 0 448 512"><!--! Font Awesome Free 6.1.1 by @fontawesome - https://fontawesome.com License - https://fontawesome.com/license/free (Icons: CC BY 4.0, Fonts: SIL OFL 1.1, Code: MIT License) Copyright 2022 Fonticons, Inc. --><path d="M0 64C0 46.33 14.33 32 32 32H416C433.7 32 448 46.33 448 64C448 81.67 433.7 96 416 96H32C14.33 96 0 81.67 0 64zM192 192C192 174.3 206.3 160 224 160H416C433.7 160 448 174.3 448 192C448 209.7 433.7 224 416 224H224C206.3 224 192 209.7 192 192zM416 288C433.7 288 448 302.3 448 320C448 337.7 433.7 352 416 352H224C206.3 352 192 337.7 192 320C192 302.3 206.3 288 224 288H416zM0 448C0 430.3 14.33 416 32 416H416C433.7 416 448 430.3 448 448C448 465.7 433.7 480 416 480H32C14.33 480 0 465.7 0 448zM25.82 347.9C15.31 356.1 0 348.6 0 335.3V176.7C0 163.4 15.31 155.9 25.82 164.1L127.8 243.4C135.1 249.8 135.1 262.2 127.8 268.6L25.82 347.9z"/></svg>
